<?xml version="1.0" encoding="UTF-8"?>
<map version="1.10" tiledversion="1.12.2" orientation="orthogonal" renderorder="right-down" width="48" height="32" tilewidth="32" tileheight="32" infinite="0" nextlayerid="8" nextobjectid="81">
 <tileset firstgid="1" source="road_tiles.tsx"/>
 <tileset firstgid="2" source="collision_tiles.tsx"/>
 <imagelayer id="2" name="Background">
  <image source="../../../assets/images/map/map1.png" width="1535" height="1024"/>
 </imagelayer>
 <layer id="3" name="Road_AI" width="48" height="32">
  <data encoding="csv">
0,0,0,0,0,0,0,0,0,0,1,0,0,0,0,1,0,0,0,0,0,0,0,1,0,0,0,0,0,0,0,1,0,0,0,0,0,0,0,1,0,0,0,0,0,0,0,0,
1,1,1,1,1,1,1,1,1,1,1,0,0,0,0,1,1,1,1,1,1,1,1,1,0,0,1,1,1,1,1,1,1,1,1,1,1,1,1,1,0,0,1,1,1,1,1,1,
1,0,0,0,0,0,0,0,0,0,1,0,0,0,0,1,0,0,0,0,0,0,0,1,0,0,0,0,0,0,0,1,0,0,0,0,0,0,0,1,0,0,0,0,0,0,0,0,
1,0,0,0,0,0,0,0,0,0,1,0,0,0,0,1,0,0,0,0,0,0,0,1,0,0,0,0,0,0,0,1,0,0,0,0,0,0,0,1,0,0,0,0,0,0,0,0,
1,0,0,0,0,0,0,0,0,0,1,0,0,0,0,1,0,0,0,0,0,0,0,1,0,0,0,0,0,0,0,1,0,0,0,0,0,0,0,1,0,0,0,0,0,0,0,0,
1,0,0,0,0,0,0,0,0,0,1,0,0,0,0,1,0,0,0,1,0,0,0,1,0,0,0,0,0,0,0,1,0,0,0,0,0,0,0,1,0,0,0,0,0,0,0,0,
1,1,1,1,1,1,1,1,1,1,1,1,1,1,1,1,1,1,1,1,1,1,1,1,1,1,1,1,1,1,1,1,1,1,1,1,1,1,1,1,1,1,1,1,1,0,0,0,
1,0,0,0,0,1,0,0,0,0,1,0,0,0,0,1,0,0,0,0,1,0,0,1,0,0,0,0,0,0,0,1,0,0,0,0,0,0,0,1,0,0,0,0,1,0,0,0,
1,0,0,0,0,1,0,0,0,0,1,0,0,0,0,1,0,0,0,0,1,0,0,1,0,0,0,0,0,0,0,1,0,0,0,0,0,0,0,1,0,0,0,0,1,0,0,0,
1,0,0,0,0,1,0,0,0,0,1,0,0,0,0,1,0,0,0,0,1,0,0,1,0,0,0,0,0,0,0,1,0,0,0,0,0,0,0,1,0,0,0,0,1,0,0,0,
1,0,0,0,0,1,0,0,0,0,1,0,0,0,0,1,0,0,0,0,1,0,0,1,0,0,0,0,0,0,0,1,0,0,0,0,0,0,0,1,0,0,0,0,1,0,0,0,
1,1,1,1,1,1,1,1,1,1,1,1,1,1,1,1,1,1,1,1,1,1,1,1,1,1,1,1,1,1,1,1,1,1,1,1,1,1,1,1,1,1,1,1,1,1,1,1,
1,0,0,0,0,1,0,0,0,0,1,0,0,0,0,1,0,0,0,0,0,0,0,1,0,0,0,1,0,0,0,1,0,0,0,1,0,0,0,1,0,0,0,0,1,0,1,0,
1,0,0,0,0,1,0,0,0,0,1,0,0,0,0,1,0,0,0,0,0,0,0,1,0,0,0,1,0,0,0,1,0,0,0,1,0,0,0,1,0,0,0,0,1,0,1,0,
1,0,0,0,0,1,0,0,0,0,1,0,0,0,0,1,0,0,0,0,0,0,0,1,0,0,0,1,0,0,0,1,0,0,0,1,0,0,0,1,0,0,0,0,1,0,1,0,
1,0,0,0,0,1,0,0,0,0,1,0,0,0,0,1,0,0,0,0,0,0,0,1,0,1,0,1,0,0,0,1,0,0,0,1,0,1,0,1,0,0,0,0,1,0,1,0,
1,1,1,1,1,1,1,1,1,1,1,1,1,1,1,1,1,1,1,1,1,1,1,1,1,1,1,1,1,1,1,1,1,1,1,1,1,1,1,1,0,0,0,0,1,1,1,1,
1,0,0,0,0,0,0,0,0,0,1,0,0,0,0,1,0,0,0,0,0,0,0,1,0,0,0,0,0,0,0,1,0,0,0,0,0,0,0,1,0,0,0,0,1,0,1,0,
1,0,0,0,0,0,0,0,0,0,1,0,0,0,0,1,0,0,0,0,0,0,0,1,0,0,0,0,0,0,0,1,1,1,1,1,1,1,1,1,0,0,0,0,1,1,1,1,
1,0,0,0,0,0,0,0,0,0,1,0,0,0,0,1,0,0,0,0,0,0,0,1,0,0,0,0,0,0,0,1,0,0,0,0,0,0,0,1,0,0,0,0,1,0,0,0,
1,0,0,0,0,0,0,0,0,0,1,0,0,0,0,1,0,0,0,0,0,0,0,1,0,0,0,1,0,0,0,1,0,0,0,0,0,0,0,1,0,0,0,0,1,0,0,0,
1,0,0,0,0,0,0,0,0,0,1,1,1,1,1,1,1,1,1,1,1,1,1,1,1,1,1,1,1,1,1,1,1,1,1,1,1,1,1,1,1,1,1,1,1,0,0,0,
1,0,0,0,0,0,0,0,0,0,1,0,0,0,0,1,0,0,0,0,0,0,0,1,0,1,0,0,0,1,0,1,0,0,0,1,0,0,0,1,0,0,0,0,1,0,0,0,
1,0,0,0,0,0,0,0,0,0,1,0,0,0,0,1,0,0,0,0,0,0,0,1,1,0,0,0,0,1,0,1,0,0,0,1,0,0,0,1,0,0,0,0,1,0,0,0,
1,0,0,0,0,0,0,0,0,0,1,0,0,0,0,1,0,0,0,0,0,0,0,1,0,0,0,0,0,1,0,1,0,1,0,1,0,0,0,1,0,0,0,0,1,0,0,0,
1,1,1,1,1,1,1,1,1,1,1,1,1,1,1,1,1,1,1,1,1,1,1,1,1,1,1,1,1,1,1,1,1,1,1,1,1,1,1,1,1,1,1,1,1,1,1,1,
1,0,0,0,0,1,0,0,0,0,1,0,0,0,0,1,0,0,0,0,0,0,0,1,0,0,0,0,0,0,0,1,0,0,0,0,0,0,0,1,0,0,0,0,1,0,0,0,
1,1,1,1,1,1,1,1,1,1,1,0,0,0,0,1,0,0,0,0,0,0,0,1,1,1,1,1,1,1,1,1,1,0,0,0,0,0,0,1,1,1,1,1,1,1,1,1,
1,0,0,0,0,1,0,0,0,0,1,0,0,0,0,1,0,0,0,0,0,0,0,1,0,0,0,0,0,0,0,1,0,0,0,0,0,0,0,1,0,0,0,0,1,0,0,0,
1,0,0,0,0,1,0,0,0,0,1,0,0,0,0,1,0,0,0,0,0,0,0,1,0,0,0,0,0,0,0,1,0,0,0,0,0,0,0,1,0,0,0,0,1,0,0,0,
1,1,1,1,1,1,1,1,1,1,1,1,1,1,1,1,1,1,1,1,1,1,1,1,1,1,1,1,1,1,1,1,1,1,1,1,1,1,1,1,0,0,0,0,1,0,0,0,
1,0,0,0,0,0,0,0,0,0,1,0,0,0,0,1,0,0,0,0,0,0,0,1,0,0,0,0,0,0,0,1,0,0,0,0,0,0,0,1,0,0,0,0,1,0,0,0
</data>
 </layer>
 <layer id="4" name="Collision" width="48" height="32" visible="0">
  <data encoding="csv">
2,2,2,2,2,2,2,2,2,2,0,2,2,2,2,0,2,2,2,2,2,2,2,0,2,2,2,2,2,2,2,0,2,2,2,2,2,2,2,0,2,2,2,2,2,2,2,2,
0,0,0,0,0,0,0,0,0,0,0,2,2,2,2,0,0,0,0,0,0,0,0,0,2,2,0,0,0,0,0,0,0,0,0,0,0,0,0,0,2,2,0,0,0,0,0,0,
0,2,2,2,2,2,2,2,2,2,0,2,2,2,2,0,2,2,2,2,2,2,2,0,2,2,2,2,2,2,2,0,2,2,2,2,2,2,2,0,2,2,2,2,2,2,2,2,
0,2,2,2,2,2,2,2,2,2,0,2,2,2,2,0,2,2,2,2,2,2,2,0,2,2,2,2,2,2,2,0,2,2,2,2,2,2,2,0,2,2,2,2,2,2,2,2,
0,2,2,2,2,2,2,2,2,2,0,2,2,2,2,0,2,2,2,2,2,2,2,0,2,2,2,2,2,2,2,0,2,2,2,2,2,2,2,0,2,2,2,2,2,2,2,2,
0,2,2,2,1,2,2,2,2,2,0,2,1,2,2,0,2,2,2,0,2,2,2,0,2,2,2,2,1,2,2,0,2,2,2,1,2,2,2,0,2,2,2,2,2,2,2,2,
0,0,0,0,0,0,0,0,0,0,0,0,0,0,0,0,0,0,0,0,0,0,0,0,0,0,0,0,0,0,0,0,0,0,0,0,0,0,0,0,0,0,0,0,0,2,2,2,
0,2,2,2,2,0,2,2,2,2,0,2,2,2,2,0,2,2,2,2,0,2,2,0,2,2,2,2,2,2,2,0,2,2,2,2,2,2,2,0,2,2,2,2,0,2,2,2,
0,2,2,2,2,0,2,2,2,2,0,2,2,2,2,0,2,2,2,2,0,2,2,0,2,2,2,2,2,2,2,0,2,2,2,2,2,2,2,0,2,2,2,2,0,2,2,2,
0,2,2,2,2,0,2,2,2,2,0,2,2,2,2,0,2,2,2,2,0,2,2,0,2,2,2,2,2,2,2,0,2,2,2,2,2,2,2,0,2,2,2,2,0,2,2,2,
0,2,1,2,2,0,2,2,2,2,0,2,2,1,2,0,2,2,1,2,0,2,2,0,2,2,2,2,1,2,2,0,2,1,2,2,1,2,2,0,2,1,2,2,0,2,2,2,
0,0,0,0,0,0,0,0,0,0,0,0,0,0,0,0,0,0,0,0,0,0,0,0,0,0,0,0,0,0,0,0,0,0,0,0,0,0,0,0,0,0,0,0,0,0,0,0,
0,2,2,2,2,0,2,2,2,2,0,2,2,2,2,0,2,2,2,2,2,2,2,0,2,2,2,0,2,2,2,0,2,2,2,0,2,2,2,0,2,2,2,2,0,2,0,2,
0,2,2,2,2,0,2,2,2,2,0,2,2,2,2,0,2,2,2,2,2,2,2,0,2,2,2,0,2,2,2,0,2,2,2,0,2,2,2,0,1,1,1,1,0,2,0,2,
0,2,2,2,2,0,2,2,2,2,0,2,2,2,2,0,2,2,2,2,2,2,2,0,2,2,2,0,2,2,2,0,2,2,2,0,2,2,2,0,2,2,2,2,0,2,0,2,
0,2,2,1,2,0,2,1,2,2,0,2,2,2,2,0,2,2,2,2,2,2,2,0,2,0,2,0,2,2,2,0,2,1,2,0,2,0,2,0,2,2,2,2,0,2,0,2,
0,0,0,0,0,0,0,0,0,0,0,0,0,0,0,0,0,0,0,0,0,0,0,0,0,0,0,0,0,0,0,0,0,0,0,0,0,0,0,0,2,2,2,2,0,0,0,0,
0,2,2,2,2,2,2,2,2,2,0,2,2,2,2,0,2,2,2,2,2,2,2,0,2,2,2,2,2,2,2,0,2,2,2,2,2,2,2,0,2,2,2,2,0,2,0,2,
0,2,2,2,2,2,2,2,2,2,0,2,2,2,2,0,2,2,2,2,2,2,2,0,2,2,2,2,2,2,2,0,0,0,0,0,0,0,0,0,2,2,2,2,0,0,0,0,
0,2,2,2,2,2,2,2,2,2,0,2,2,2,2,0,2,2,2,2,2,2,2,0,2,2,2,2,2,2,2,0,2,2,2,2,2,2,2,0,2,2,2,2,0,2,2,2,
0,2,2,2,2,2,2,2,2,2,0,2,1,2,2,0,2,1,2,2,2,2,2,0,2,2,2,2,2,2,2,0,2,2,1,2,2,2,2,0,2,2,2,2,0,2,2,2,
0,2,2,2,2,2,2,2,2,2,0,0,0,0,0,0,0,0,0,0,0,0,0,0,0,0,0,0,0,0,0,0,0,0,0,0,0,0,0,0,0,0,0,0,0,2,2,2,
0,2,2,2,2,2,2,2,2,2,0,2,2,2,2,0,2,2,2,2,2,2,2,0,2,2,2,2,2,0,2,0,2,2,2,0,2,2,2,0,2,2,2,2,0,2,2,2,
0,2,2,2,2,2,2,2,2,2,0,2,2,2,2,0,2,2,2,2,2,2,2,0,2,2,2,2,2,0,2,0,2,2,2,0,2,2,2,0,2,2,2,2,0,2,2,2,
0,2,2,2,2,1,2,2,2,2,0,2,2,2,2,0,2,2,2,1,2,2,2,0,2,2,2,2,2,0,2,0,2,0,2,0,2,2,2,0,2,2,2,2,0,2,2,2,
0,0,0,0,0,0,0,0,0,0,0,0,0,0,0,0,0,0,0,0,0,0,0,0,0,0,0,0,0,0,0,0,0,0,0,0,0,0,0,0,0,0,0,0,0,0,0,0,
0,2,2,2,2,0,2,2,2,2,0,2,2,2,2,0,2,2,2,2,2,2,2,0,2,2,2,2,2,2,2,0,2,2,2,2,2,2,2,0,2,2,2,2,0,2,2,2,
0,0,0,0,0,0,0,0,0,0,0,2,2,2,2,0,2,2,2,2,2,2,2,0,0,0,0,0,0,0,0,0,0,2,2,2,2,2,2,0,0,0,0,0,0,0,0,0,
0,2,2,2,2,0,2,2,2,2,0,2,2,2,2,0,2,2,2,2,2,2,2,0,2,2,2,2,2,2,2,0,2,2,2,2,2,2,2,0,2,2,2,2,0,2,2,2,
0,2,2,2,2,0,2,2,2,2,0,2,2,2,2,0,2,2,2,2,2,2,2,0,2,2,2,2,2,2,2,0,2,2,2,2,2,2,2,0,2,2,2,2,0,2,2,2,
0,0,0,0,0,0,0,0,0,0,0,0,0,0,0,0,0,0,0,0,0,0,0,0,0,0,0,0,0,0,0,0,0,0,0,0,0,0,0,0,2,2,2,2,0,2,2,2,
0,2,2,2,2,2,2,2,2,2,0,2,2,2,2,0,2,2,2,2,2,2,2,0,2,2,2,2,2,2,2,0,2,2,2,2,2,2,2,0,2,2,2,2,0,2,2,2
</data>
 </layer>
 <objectgroup id="6" name="Objects">
  <object id="5" name="pickup_megamart" type="PickupPoint" x="128" y="192" width="32" height="32">
   <properties>
    <property name="base_reward" type="int" value="300"/>
    <property name="shop_name" value="MegaMart"/>
   </properties>
  </object>
  <object id="6" name="pickup_townmall" type="PickupPoint" x="896" y="192" width="32" height="32">
   <properties>
    <property name="base_reward" type="int" value="60"/>
    <property name="shop_name" value="TownMall"/>
   </properties>
  </object>
  <object id="13" name="pickup_generalstore" type="PickupPoint" x="544" y="672" width="32" height="32">
   <properties>
    <property name="base_reward" type="int" value="32"/>
    <property name="shop_name" value="GeneralStore"/>
   </properties>
  </object>
  <object id="15" name="pickup_nursery" type="PickupPoint" x="1312" y="352" width="32" height="32">
   <properties>
    <property name="base_reward" type="int" value="102"/>
    <property name="shop_name" value="Nursery"/>
   </properties>
  </object>
  <object id="28" name="pickup_grandmall" type="PickupPoint" x="1024" y="864" width="32" height="32">
   <properties>
    <property name="base_reward" type="int" value="320"/>
    <property name="shop_name" value="GrandMall"/>
   </properties>
  </object>
  <object id="32" name="pickup_fish" type="PickupPoint" x="96" y="960" width="32" height="32">
   <properties>
    <property name="base_reward" type="int" value="60"/>
    <property name="shop_name" value="FishShop"/>
   </properties>
  </object>
  <object id="35" name="house_2" type="DeliveryPoint" x="608" y="160" width="32" height="32"/>
  <object id="42" name="house_8" type="DeliveryPoint" x="480" y="416" width="32" height="32"/>
  <object id="48" name="house_11" type="DeliveryPoint" x="608" y="800" width="32" height="32"/>
  <object id="60" name="house_15" type="DeliveryPoint" x="1408" y="640" width="32" height="32"/>
  <object id="62" name="house_17" type="DeliveryPoint" x="896" y="960" width="32" height="32"/>
  <object id="67" name="house_9" type="DeliveryPoint" x="800" y="672" width="32" height="32"/>
  <object id="71" name="player_spawn" type="Player" x="0" y="32" width="32" height="32"/>
  <object id="72" name="algorithm_spawn_1" type="NPC" x="0" y="32" width="32" height="32"/>
  <object id="73" name="algorithm_spawn_2" type="NPC" x="0" y="32" width="32" height="32"/>
  <object id="74" name="algorithm_spawn_3" type="NPC" x="0" y="32" width="32" height="32"/>
  <object id="76" name="traffic_trap_1" type="TrafficTrap" x="160" y="256" width="32" height="32"/>
  <object id="77" name="traffic_trap_2" type="TrafficTrap" x="480" y="256" width="32" height="32"/>
  <object id="78" name="traffic_trap_3" type="TrafficTrap" x="576" y="192" width="32" height="32"/>
</objectgroup>
</map>
