<?xml version="1.0" encoding="UTF-8"?>
<map version="1.10" tiledversion="1.12.2" orientation="orthogonal" renderorder="right-down" width="48" height="32" tilewidth="32" tileheight="32" infinite="0" nextlayerid="13" nextobjectid="59">
 <tileset firstgid="1" source="road.tsx"/>
 <tileset firstgid="2" source="collision_tiles.tsx"/>
 <tileset firstgid="1" source="road.tsx"/>
 <tileset firstgid="2" source="collision_tiles.tsx"/>
 <imagelayer id="2" name="Background">
  <image source="../../../assets/images/map/map2.png" width="1536" height="1024"/>
 </imagelayer>
 <layer id="7" name="Collision" width="48" height="32" visible="0">
  <data encoding="csv">
2,2,2,2,2,2,2,2,2,2,0,2,2,2,2,2,2,2,2,2,2,2,2,0,2,2,2,2,2,2,2,2,2,2,2,2,2,2,2,2,2,2,2,2,2,2,2,2,
2,0,0,0,0,0,0,0,0,0,0,2,2,2,2,2,2,2,2,2,2,2,2,0,2,2,2,2,2,2,2,2,2,2,2,2,2,2,2,2,2,2,2,2,2,2,2,2,
0,2,2,2,2,2,2,2,2,2,0,2,2,2,2,2,2,2,2,2,2,2,2,0,2,2,2,2,2,2,2,2,2,2,2,2,2,2,2,2,2,2,2,2,2,2,2,2,
0,2,2,2,2,2,2,2,2,2,0,2,2,2,2,2,2,2,2,2,2,2,2,0,2,2,2,2,2,2,2,2,2,2,2,2,2,2,2,2,2,2,2,2,2,2,2,2,
0,2,2,2,0,0,2,2,2,2,0,2,2,2,2,2,2,2,0,0,0,0,0,0,2,2,0,2,2,2,2,2,2,2,2,2,2,2,2,2,2,2,2,2,2,2,2,2,
0,0,0,0,0,0,0,0,0,0,0,2,2,2,2,2,2,2,2,2,2,2,2,0,0,0,0,0,0,0,0,0,0,0,0,0,0,0,0,0,0,0,0,2,2,2,2,2,
0,2,2,2,2,2,2,2,2,2,0,0,0,0,0,2,2,2,2,2,2,2,2,0,2,2,2,2,2,2,2,2,2,2,2,2,0,2,2,2,2,2,0,2,2,2,2,2,
0,2,2,2,2,2,2,2,2,2,2,0,2,2,2,2,2,2,2,2,2,2,2,0,2,2,2,2,2,2,2,2,2,2,2,0,2,2,2,2,2,2,0,2,2,2,2,2,
0,2,2,2,2,2,2,2,2,2,2,2,0,2,2,2,2,2,0,0,0,0,0,0,2,2,2,2,2,2,2,2,2,2,0,2,2,2,2,2,2,2,0,2,2,2,2,2,
0,2,2,2,2,0,2,2,2,2,2,2,2,0,2,2,2,2,2,2,2,2,2,0,2,2,2,2,2,2,2,2,2,2,2,2,2,2,2,2,2,2,2,2,2,2,2,2,
0,0,0,0,0,0,0,0,0,0,0,0,0,0,0,2,2,2,2,2,2,2,2,0,0,0,0,2,2,2,2,2,0,0,2,2,2,2,2,2,2,2,2,2,2,2,2,2,
0,2,2,2,0,2,2,2,2,0,2,2,2,0,2,0,2,2,2,2,2,0,0,0,2,2,2,2,2,2,2,0,2,0,2,2,2,2,2,2,2,2,2,2,2,2,2,2,
0,2,2,2,0,2,2,2,2,0,2,2,2,0,2,2,0,2,2,2,2,2,2,0,2,2,2,2,2,2,0,2,2,0,0,0,0,0,0,0,0,0,0,2,2,2,2,2,
0,2,0,2,0,2,2,2,2,0,2,0,2,0,2,2,2,0,2,2,2,2,2,0,2,2,2,2,2,0,2,2,2,2,2,2,2,2,2,2,2,2,0,2,2,2,2,2,
0,0,0,0,0,0,0,0,0,0,0,0,0,0,0,0,0,0,0,2,2,2,0,0,0,2,2,2,0,0,0,0,0,0,0,0,2,2,0,0,0,0,0,2,2,2,2,2,
0,2,2,2,2,2,2,2,2,0,2,2,2,0,2,2,2,2,2,0,2,0,2,2,2,0,2,0,0,2,2,2,2,2,2,2,2,2,2,2,2,2,0,2,2,2,2,2,
0,2,2,2,2,2,2,2,2,0,2,2,2,0,2,2,2,2,2,2,0,0,2,2,2,0,0,2,0,2,2,2,2,2,2,2,2,2,2,2,2,2,0,2,2,2,2,2,
0,2,2,2,2,2,2,2,2,0,2,2,2,0,2,2,2,2,2,2,2,0,2,2,2,0,2,2,0,2,2,2,2,2,2,2,2,2,2,2,2,2,0,2,2,2,2,2,
0,2,2,2,0,2,2,2,2,0,2,2,2,0,2,2,2,2,2,2,0,2,0,0,0,2,0,2,0,2,2,2,2,2,2,2,2,2,2,2,2,2,0,2,2,2,2,2,
0,2,2,2,0,2,2,2,2,0,2,2,2,0,2,2,2,2,2,0,2,2,2,0,2,2,2,0,0,2,2,2,2,2,2,2,2,2,2,2,2,2,0,2,2,2,2,2,
0,2,2,2,0,2,2,2,2,0,2,2,2,0,2,2,2,2,0,2,2,2,2,0,2,2,2,2,0,0,0,0,0,0,0,0,2,2,0,0,0,0,0,2,2,2,2,2,
0,0,0,0,0,0,0,0,0,0,2,2,2,0,2,2,2,0,0,0,0,0,0,0,0,0,0,2,2,2,2,2,2,2,2,2,2,2,2,2,2,2,2,2,2,2,2,2,
0,2,2,2,2,2,2,2,2,0,2,2,2,0,2,2,0,2,2,2,2,2,2,0,2,2,2,0,2,2,2,2,2,2,2,2,2,2,2,2,2,2,2,2,2,2,2,2,
0,2,2,2,2,2,2,2,2,0,2,2,2,0,2,0,2,2,2,2,2,2,2,0,2,2,2,2,0,2,2,2,0,2,2,2,2,2,2,2,2,2,2,2,2,2,2,2,
0,2,2,2,2,2,2,2,2,0,2,2,2,0,0,2,2,2,2,2,2,2,2,0,2,2,2,2,0,0,0,0,0,0,0,0,0,0,2,2,2,2,2,2,2,2,2,2,
0,2,2,2,2,2,2,2,2,0,0,0,0,0,2,2,2,2,2,2,2,2,2,0,2,2,2,2,0,2,2,2,2,2,2,2,2,0,2,2,2,2,2,0,2,2,2,2,
0,2,2,2,2,2,2,2,2,0,2,2,2,2,2,2,2,2,2,2,2,2,2,0,2,2,2,2,0,2,2,2,2,2,2,2,2,0,0,0,0,0,0,0,2,2,2,2,
0,2,2,2,2,2,2,2,2,0,2,2,2,2,2,2,2,2,2,2,2,2,2,0,2,2,2,2,0,2,2,2,2,2,2,2,2,0,2,2,2,2,2,0,2,2,2,2,
0,0,0,0,0,0,0,0,0,0,2,2,2,2,2,2,2,2,2,2,2,2,2,0,2,2,2,2,0,2,2,2,2,2,2,2,2,0,2,2,2,2,2,0,2,2,2,2,
0,2,2,2,2,0,2,2,2,0,2,2,2,2,2,2,2,2,2,2,2,2,2,0,2,2,2,2,0,2,2,2,2,2,2,2,2,0,2,2,2,2,2,0,2,2,2,2,
0,2,2,2,2,0,2,2,2,0,2,2,2,2,2,2,2,0,0,0,0,0,0,0,0,0,0,0,0,0,0,0,0,0,0,0,0,0,0,0,0,0,0,0,0,0,0,0,
0,2,2,2,2,0,2,2,2,0,2,2,2,2,2,2,2,2,2,2,2,2,2,0,2,2,2,2,2,2,2,2,2,2,2,2,2,0,2,2,2,2,2,0,2,2,2,2
</data>
 </layer>
 <layer id="6" name="Road_AI" width="48" height="32">
  <data encoding="csv">
0,0,0,0,0,0,0,0,0,0,1,0,0,0,0,0,0,0,0,0,0,0,0,1,0,0,0,0,0,0,0,0,0,0,0,0,0,0,0,0,0,0,0,0,0,0,0,0,
0,1,1,1,1,1,1,1,1,1,1,0,0,0,0,0,0,0,0,0,0,0,0,1,0,0,0,0,0,0,0,0,0,0,0,0,0,0,0,0,0,0,0,0,0,0,0,0,
1,0,0,0,0,0,0,0,0,0,1,0,0,0,0,0,0,0,0,0,0,0,0,1,0,0,0,0,0,0,0,0,0,0,0,0,0,0,0,0,0,0,0,0,0,0,0,0,
1,0,0,0,0,0,0,0,0,0,1,0,0,0,0,0,0,0,0,0,0,0,0,1,0,0,0,0,0,0,0,0,0,0,0,0,0,0,0,0,0,0,0,0,0,0,0,0,
1,0,0,0,1,1,0,0,0,0,1,0,0,0,0,0,0,0,1,1,1,1,1,1,0,0,1,0,0,0,0,0,0,0,0,0,0,0,0,0,0,0,0,0,0,0,0,0,
1,1,1,1,1,1,1,1,1,1,1,0,0,0,0,0,0,0,0,0,0,0,0,1,1,1,1,1,1,1,1,1,1,1,1,1,1,1,1,1,1,1,1,0,0,0,0,0,
1,0,0,0,0,0,0,0,0,0,3,1,1,1,1,0,0,0,0,0,0,0,0,1,0,0,0,0,0,0,0,0,0,0,0,0,1,0,0,0,0,0,1,0,0,0,0,0,
1,0,0,0,0,0,0,0,0,0,0,3,0,0,0,0,0,0,0,0,0,0,0,1,0,0,0,0,0,0,0,0,0,0,0,1,0,0,0,0,0,0,1,0,0,0,0,0,
1,0,0,0,0,0,0,0,0,0,0,0,3,0,0,0,0,0,1,1,1,1,1,1,0,0,0,0,0,0,0,0,0,0,1,0,0,0,0,0,0,0,1,0,0,0,0,0,
1,0,0,0,0,1,0,0,0,0,0,0,0,3,0,0,0,0,0,0,0,0,0,1,0,0,0,0,0,0,0,0,0,0,0,0,0,0,0,0,0,0,0,0,0,0,0,0,
1,1,1,1,1,1,1,1,1,1,1,1,3,3,3,0,0,0,0,0,0,0,0,1,1,1,1,0,0,0,0,0,1,1,0,0,0,0,0,0,0,0,0,0,0,0,0,0,
1,0,0,0,1,0,0,0,0,1,0,0,0,1,0,3,0,0,0,0,0,1,1,1,0,0,0,0,0,0,0,1,0,1,0,0,0,0,0,0,0,0,0,0,0,0,0,0,
1,0,0,0,1,0,0,0,0,1,0,0,0,1,0,0,3,0,0,0,0,0,0,1,0,0,0,0,0,0,1,0,0,1,1,1,1,1,1,1,1,1,1,0,0,0,0,0,
1,0,1,0,1,0,0,0,0,1,0,1,0,1,0,0,0,3,0,0,0,0,0,1,0,0,0,0,0,1,0,0,0,0,0,0,0,0,0,0,0,0,1,0,0,0,0,0,
1,1,1,1,1,1,1,1,1,1,1,1,1,1,1,1,1,1,1,0,0,0,3,3,3,0,0,0,1,1,1,1,1,1,1,1,0,0,1,1,1,1,1,0,0,0,0,0,
1,0,0,0,0,0,0,0,0,1,0,0,0,1,0,0,0,0,0,3,0,3,0,0,0,3,0,1,1,0,0,0,0,0,0,0,0,0,0,0,0,0,1,0,0,0,0,0,
1,0,0,0,0,0,0,0,0,1,0,0,0,1,0,0,0,0,0,0,3,3,0,0,0,3,3,0,1,0,0,0,0,0,0,0,0,0,0,0,0,0,1,0,0,0,0,0,
1,0,0,0,0,0,0,0,0,1,0,0,0,1,0,0,0,0,0,0,0,3,0,0,0,3,0,0,1,0,0,0,0,0,0,0,0,0,0,0,0,0,1,0,0,0,0,0,
1,0,0,0,1,0,0,0,0,1,0,0,0,1,0,0,0,0,0,0,1,0,3,3,3,0,3,0,1,0,0,0,0,0,0,0,0,0,0,0,0,0,1,0,0,0,0,0,
1,0,0,0,1,0,0,0,0,1,0,0,0,1,0,0,0,0,0,1,0,0,0,1,0,0,0,1,1,0,0,0,0,0,0,0,0,0,0,0,0,0,1,0,0,0,0,0,
1,0,0,0,1,0,0,0,0,1,0,0,0,1,0,0,0,0,1,0,0,0,0,1,0,0,0,0,1,1,1,1,1,1,1,1,0,0,1,1,1,1,1,0,0,0,0,0,
1,1,1,1,1,1,1,1,1,1,0,0,0,1,0,0,0,1,1,1,1,1,1,1,1,1,1,0,0,0,0,0,0,0,0,0,0,0,0,0,0,0,0,0,0,0,0,0,
1,0,0,0,0,0,0,0,0,1,0,0,0,1,0,0,1,0,0,0,0,0,0,1,0,0,0,1,0,0,0,0,0,0,0,0,0,0,0,0,0,0,0,0,0,0,0,0,
1,0,0,0,0,0,0,0,0,1,0,0,0,1,0,1,0,0,0,0,0,0,0,1,0,0,0,0,1,0,0,0,1,0,0,0,0,0,0,0,0,0,0,0,0,0,0,0,
1,0,0,0,0,0,0,0,0,1,0,0,0,1,1,0,0,0,0,0,0,0,0,1,0,0,0,0,1,1,1,1,1,1,1,1,1,1,0,0,0,0,0,0,0,0,0,0,
1,0,0,0,0,0,0,0,0,1,1,1,1,1,0,0,0,0,0,0,0,0,0,1,0,0,0,0,1,0,0,0,0,0,0,0,0,1,0,0,0,0,0,1,0,0,0,0,
1,0,0,0,0,0,0,0,0,1,0,0,0,0,0,0,0,0,0,0,0,0,0,1,0,0,0,0,1,0,0,0,0,0,0,0,0,1,1,1,1,1,1,1,0,0,0,0,
1,0,0,0,0,0,0,0,0,1,0,0,0,0,0,0,0,0,0,0,0,0,0,1,0,0,0,0,1,0,0,0,0,0,0,0,0,1,0,0,0,0,0,1,0,0,0,0,
1,1,1,1,1,1,1,1,1,1,0,0,0,0,0,0,0,0,0,0,0,0,0,1,0,0,0,0,1,0,0,0,0,0,0,0,0,1,0,0,0,0,0,1,0,0,0,0,
1,0,0,0,0,1,0,0,0,1,0,0,0,0,0,0,0,0,0,0,0,0,0,1,0,0,0,0,1,0,0,0,0,0,0,0,0,1,0,0,0,0,0,1,0,0,0,0,
1,0,0,0,0,1,0,0,0,1,0,0,0,0,0,0,0,1,1,1,1,1,1,1,1,1,1,1,1,1,1,1,1,1,1,1,1,1,1,1,1,1,1,1,1,1,1,1,
1,0,0,0,0,1,0,0,0,1,0,0,0,0,0,0,0,0,0,0,0,0,0,1,0,0,0,0,0,0,0,0,0,0,0,0,0,1,0,0,0,0,0,1,0,0,0,0
</data>
 </layer>
 <objectgroup id="11" name="Objects">
  <object id="4" name="player_spawn" type="Player" x="736" y="672" width="32" height="32">
   <properties>
    <property name="spawn" type="bool" value="true"/>
   </properties>
  </object>
  <object id="5" name="pickup_gas_station" type="PickupPoint" x="160" y="128" width="32" height="32">
   <properties>
    <property name="base_reward" type="int" value="200"/>
    <property name="shop_name" value="Gas station"/>
   </properties>
  </object>
  <object id="8" name="pickup_police" type="PickupPoint" x="832" y="320" width="32" height="32">
   <properties>
    <property name="base_reward" type="int" value="250"/>
    <property name="shop_name" value="Police"/>
   </properties>
  </object>
  <object id="11" name="pickup_hospital" type="PickupPoint" x="1344" y="544" width="32" height="32">
   <properties>
    <property name="base_reward" type="int" value="60"/>
    <property name="shop_name" value="Hospital"/>
   </properties>
  </object>
  <object id="15" name="pickup_airport" type="PickupPoint" x="1376" y="800" width="32" height="32">
   <properties>
    <property name="base_reward" type="int" value="300"/>
    <property name="shop_name" value="Airport"/>
   </properties>
  </object>
  <object id="19" name="pickup_pish" type="PickupPoint" x="0" y="960" width="32" height="32">
   <properties>
    <property name="base_reward" type="int" value="75"/>
    <property name="shop_name" value="Fish"/>
   </properties>
  </object>
  <object id="22" name="pickup_cafe" type="PickupPoint" x="352" y="416" width="32" height="32">
   <properties>
    <property name="base_reward" type="int" value="20"/>
    <property name="shop_name" value="Cafe"/>
   </properties>
  </object>
  <object id="29" name="house_5" type="DeliveryPoint" x="1248" y="160" width="32" height="32"/>
  <object id="33" name="house_9" type="DeliveryPoint" x="0" y="256" width="32" height="32"/>
  <object id="37" name="house_13" type="DeliveryPoint" x="672" y="352" width="32" height="32"/>
  <object id="40" name="house_16" type="DeliveryPoint" x="32" y="672" width="32" height="32"/>
  <object id="45" name="house_21" type="DeliveryPoint" x="672" y="960" width="32" height="32"/>
  <object id="47" name="house_23" type="DeliveryPoint" x="1088" y="768" width="32" height="32"/>
  <object id="51" name="algorithm_spawn_1" type="NPC" x="736" y="672" width="32" height="32"/>
  <object id="52" name="algorithm_spawn_2" type="NPC" x="736" y="672" width="32" height="32"/>
  <object id="53" name="algorithm_spawn_3" type="NPC" x="736" y="672" width="32" height="32"/>
  <object id="54" name="traffic_trap_1" type="TrafficTrap" x="768" y="576" width="32" height="32"/>
  <object id="55" name="traffic_trap_2" type="TrafficTrap" x="512" y="704" width="32" height="32"/>
  <object id="56" name="traffic_trap_3" type="TrafficTrap" x="1088" y="160" width="32" height="32"/>
</objectgroup>
</map>
