<?xml version='1.0' encoding='UTF-8'?>
<map version="1.10" tiledversion="1.11.2" orientation="orthogonal" renderorder="right-down" width="48" height="32" tilewidth="32" tileheight="32" infinite="0" nextlayerid="4" nextobjectid="3">
 <tileset firstgid="1" name="tileset" tilewidth="32" tileheight="32" tilecount="4" columns="4">
  <image source="../assets/images/map/tileset.png" width="128" height="32" />
 </tileset>
 <layer id="1" name="Floor" width="48" height="32">
  <data encoding="csv">
1,4,1,3,2,2,4,4,1,4,1,1,1,1,2,2,1,1,1,1,1,1,1,1,2,2,1,1,1,1,1,1,1,1,2,2,4,3,1,4,1,1,1,1,2,2,1,1,
1,1,1,3,2,2,1,1,1,1,1,1,3,1,2,2,1,1,4,1,3,1,1,1,2,2,1,3,1,1,1,1,1,1,2,2,1,1,1,1,1,1,1,1,2,2,1,4,
1,1,1,1,2,2,1,1,1,1,1,1,1,1,2,2,3,1,1,1,1,1,1,1,2,2,1,1,3,1,1,1,1,1,2,2,1,1,1,1,1,3,1,1,2,2,1,1,
1,3,1,1,2,2,1,1,1,1,1,1,4,1,2,2,1,1,1,1,4,1,1,1,2,2,1,3,1,3,1,4,1,1,2,2,1,1,1,1,1,1,3,1,2,2,1,3,
2,2,2,2,2,2,2,2,2,2,2,2,2,2,2,2,2,2,2,2,2,2,2,2,2,2,2,2,2,2,2,2,2,2,2,2,2,2,2,2,2,2,2,2,2,2,2,2,
2,2,2,2,2,2,2,2,2,2,2,2,2,2,2,2,2,2,2,2,2,2,2,2,2,2,2,2,2,2,2,2,2,2,2,2,2,2,2,2,2,2,2,2,2,2,2,2,
4,1,1,1,2,2,1,1,1,4,1,1,1,4,2,2,1,1,1,3,1,1,1,1,2,2,3,1,1,1,1,1,4,1,2,2,1,4,4,1,1,1,1,1,2,2,4,1,
1,1,1,1,2,2,1,4,1,4,1,4,1,1,2,2,1,1,1,1,1,1,1,1,2,2,1,1,1,4,4,1,3,1,2,2,1,1,1,1,1,4,1,1,2,2,3,1,
1,1,1,1,2,2,1,1,3,1,3,1,1,1,2,2,1,1,1,1,1,3,1,1,2,2,1,1,1,1,1,1,3,1,2,2,1,1,1,1,1,1,1,3,2,2,1,1,
1,1,1,1,2,2,1,1,1,1,1,1,3,4,2,2,1,1,1,1,1,1,3,1,2,2,1,1,1,1,3,3,1,1,2,2,1,1,3,1,3,1,1,1,2,2,1,1,
1,1,1,1,2,2,1,1,1,1,1,1,1,1,2,2,1,1,1,1,1,3,1,1,2,2,4,1,1,1,1,4,4,4,2,2,1,4,1,1,1,1,1,1,2,2,1,1,
1,1,1,1,2,2,1,1,4,1,1,1,1,1,2,2,1,1,1,1,1,1,1,1,2,2,1,1,1,4,4,1,1,1,2,2,1,1,1,1,1,1,1,1,2,2,1,1,
1,1,3,3,2,2,1,1,3,4,3,1,1,1,2,2,1,1,1,1,4,4,1,1,2,2,1,1,1,1,1,1,1,4,2,2,1,1,1,4,1,4,1,1,2,2,1,3,
1,3,1,3,2,2,3,1,1,4,1,1,1,1,2,2,1,1,1,1,3,1,3,1,2,2,1,3,1,1,1,1,1,1,2,2,3,1,1,1,1,3,1,1,2,2,1,4,
2,2,2,2,2,2,2,2,2,2,2,2,2,2,2,2,2,2,2,2,2,2,2,2,2,2,2,2,2,2,2,2,2,2,2,2,2,2,2,2,2,2,2,2,2,2,2,2,
2,2,2,2,2,2,2,2,2,2,2,2,2,2,2,2,2,2,2,2,2,2,2,2,2,2,2,2,2,2,2,2,2,2,2,2,2,2,2,2,2,2,2,2,2,2,2,2,
3,1,1,1,2,2,1,4,1,1,1,1,1,3,2,2,1,3,1,1,1,1,1,1,2,2,1,1,1,1,1,1,1,1,2,2,1,4,1,1,1,1,1,3,2,2,1,1,
1,1,4,1,2,2,4,1,1,1,1,4,1,1,2,2,1,1,1,1,1,3,1,1,2,2,4,1,3,1,1,1,4,3,2,2,1,1,1,1,1,1,3,4,2,2,1,1,
1,1,1,1,2,2,3,1,1,1,4,1,1,1,2,2,1,1,1,1,1,1,1,3,2,2,1,1,1,1,1,1,1,3,2,2,1,3,4,1,3,1,1,1,2,2,1,1,
1,3,1,3,2,2,1,1,1,4,1,1,1,1,2,2,1,4,3,1,1,1,1,1,2,2,4,1,1,1,1,1,1,1,2,2,4,1,1,1,1,1,1,1,2,2,3,1,
3,4,1,1,2,2,1,4,1,1,1,1,3,1,2,2,1,1,1,1,1,1,1,1,2,2,1,1,1,3,1,4,1,1,2,2,3,1,1,1,1,1,1,1,2,2,1,1,
4,3,4,1,2,2,1,1,1,1,3,1,1,1,2,2,1,4,1,1,1,3,1,1,2,2,1,3,1,4,1,1,3,1,2,2,1,3,1,1,1,1,1,1,2,2,1,1,
1,3,1,1,2,2,1,4,1,1,1,1,1,1,2,2,3,1,1,1,3,1,1,1,2,2,1,1,1,1,1,1,1,1,2,2,1,4,1,1,1,1,1,1,2,2,1,1,
1,1,1,1,2,2,1,1,1,1,1,4,1,1,2,2,1,1,3,1,1,1,4,4,2,2,1,3,1,4,1,1,3,4,2,2,1,4,3,1,1,1,1,1,2,2,4,1,
2,2,2,2,2,2,2,2,2,2,2,2,2,2,2,2,2,2,2,2,2,2,2,2,2,2,2,2,2,2,2,2,2,2,2,2,2,2,2,2,2,2,2,2,2,2,2,2,
2,2,2,2,2,2,2,2,2,2,2,2,2,2,2,2,2,2,2,2,2,2,2,2,2,2,2,2,2,2,2,2,2,2,2,2,2,2,2,2,2,2,2,2,2,2,2,2,
3,1,1,1,2,2,1,1,1,1,1,1,1,1,2,2,1,1,1,4,1,1,1,4,2,2,1,1,1,1,1,1,1,1,2,2,1,3,1,4,1,1,1,1,2,2,1,1,
1,1,4,1,2,2,1,1,1,1,1,1,1,1,2,2,1,1,1,1,1,1,4,1,2,2,4,1,1,1,1,1,1,1,2,2,1,3,3,1,1,3,3,1,2,2,3,1,
3,1,1,3,2,2,1,1,1,1,4,1,1,1,2,2,1,1,1,1,1,1,1,1,2,2,1,1,1,1,4,3,1,1,2,2,1,1,1,1,1,3,1,1,2,2,4,1,
1,1,1,1,2,2,1,1,1,1,3,3,1,1,2,2,1,1,1,1,4,1,1,1,2,2,1,1,3,1,1,1,1,1,2,2,1,1,1,1,1,1,1,1,2,2,4,1,
3,4,1,1,2,2,1,1,1,3,1,1,1,1,2,2,1,3,4,1,1,1,1,1,2,2,1,1,3,4,1,1,1,1,2,2,1,1,1,1,1,1,4,3,2,2,3,1,
3,1,1,1,2,2,1,1,4,1,1,1,1,1,2,2,1,1,1,1,1,3,1,1,2,2,1,1,3,1,1,1,1,1,2,2,4,1,1,3,1,1,1,3,2,2,1,3
  </data>
 </layer>
 <layer id="2" name="Collision" width="48" height="32">
  <properties>
   <property name="collidable" type="bool" value="true" />
  </properties>
  <data encoding="csv">
0,100,0,100,0,0,100,100,0,100,0,0,0,0,0,0,0,0,0,0,0,0,0,0,0,0,0,0,0,0,0,0,0,0,0,0,100,100,0,100,0,0,0,0,0,0,0,0,
0,0,0,100,0,0,0,0,0,0,0,0,100,0,0,0,0,0,100,0,100,0,0,0,0,0,0,100,0,0,0,0,0,0,0,0,0,0,0,0,0,0,0,0,0,0,0,100,
0,0,0,0,0,0,0,0,0,0,0,0,0,0,0,0,100,0,0,0,0,0,0,0,0,0,0,0,100,0,0,0,0,0,0,0,0,0,0,0,0,100,0,0,0,0,0,0,
0,100,0,0,0,0,0,0,0,0,0,0,100,0,0,0,0,0,0,0,100,0,0,0,0,0,0,100,0,100,0,100,0,0,0,0,0,0,0,0,0,0,100,0,0,0,0,100,
0,0,0,0,0,0,0,0,0,0,0,0,0,0,0,0,0,0,0,0,0,0,0,0,0,0,0,0,0,0,0,0,0,0,0,0,0,0,0,0,0,0,0,0,0,0,0,0,
0,0,0,0,0,0,0,0,0,0,0,0,0,0,0,0,0,0,0,0,0,0,0,0,0,0,0,0,0,0,0,0,0,0,0,0,0,0,0,0,0,0,0,0,0,0,0,0,
100,0,0,0,0,0,0,0,0,100,0,0,0,100,0,0,0,0,0,100,0,0,0,0,0,0,100,0,0,0,0,0,100,0,0,0,0,100,100,0,0,0,0,0,0,0,100,0,
0,0,0,0,0,0,0,100,0,100,0,100,0,0,0,0,0,0,0,0,0,0,0,0,0,0,0,0,0,100,100,0,100,0,0,0,0,0,0,0,0,100,0,0,0,0,100,0,
0,0,0,0,0,0,0,0,100,0,100,0,0,0,0,0,0,0,0,0,0,100,0,0,0,0,0,0,0,0,0,0,100,0,0,0,0,0,0,0,0,0,0,100,0,0,0,0,
0,0,0,0,0,0,0,0,0,0,0,0,100,100,0,0,0,0,0,0,0,0,100,0,0,0,0,0,0,0,100,100,0,0,0,0,0,0,100,0,100,0,0,0,0,0,0,0,
0,0,0,0,0,0,0,0,0,0,0,0,0,0,0,0,0,0,0,0,0,100,0,0,0,0,100,0,0,0,0,100,100,100,0,0,0,100,0,0,0,0,0,0,0,0,0,0,
0,0,0,0,0,0,0,0,100,0,0,0,0,0,0,0,0,0,0,0,0,0,0,0,0,0,0,0,0,100,100,0,0,0,0,0,0,0,0,0,0,0,0,0,0,0,0,0,
0,0,100,100,0,0,0,0,100,100,100,0,0,0,0,0,0,0,0,0,100,100,0,0,0,0,0,0,0,0,0,0,0,100,0,0,0,0,0,100,0,100,0,0,0,0,0,100,
0,100,0,100,0,0,100,0,0,100,0,0,0,0,0,0,0,0,0,0,100,0,100,0,0,0,0,100,0,0,0,0,0,0,0,0,100,0,0,0,0,100,0,0,0,0,0,100,
0,0,0,0,0,0,0,0,0,0,0,0,0,0,0,0,0,0,0,0,0,0,0,0,0,0,0,0,0,0,0,0,0,0,0,0,0,0,0,0,0,0,0,0,0,0,0,0,
0,0,0,0,0,0,0,0,0,0,0,0,0,0,0,0,0,0,0,0,0,0,0,0,0,0,0,0,0,0,0,0,0,0,0,0,0,0,0,0,0,0,0,0,0,0,0,0,
100,0,0,0,0,0,0,100,0,0,0,0,0,100,0,0,0,100,0,0,0,0,0,0,0,0,0,0,0,0,0,0,0,0,0,0,0,100,0,0,0,0,0,100,0,0,0,0,
0,0,100,0,0,0,100,0,0,0,0,100,0,0,0,0,0,0,0,0,0,100,0,0,0,0,100,0,100,0,0,0,100,100,0,0,0,0,0,0,0,0,100,100,0,0,0,0,
0,0,0,0,0,0,100,0,0,0,100,0,0,0,0,0,0,0,0,0,0,0,0,100,0,0,0,0,0,0,0,0,0,100,0,0,0,100,100,0,100,0,0,0,0,0,0,0,
0,100,0,100,0,0,0,0,0,100,0,0,0,0,0,0,0,100,100,0,0,0,0,0,0,0,100,0,0,0,0,0,0,0,0,0,100,0,0,0,0,0,0,0,0,0,100,0,
100,100,0,0,0,0,0,100,0,0,0,0,100,0,0,0,0,0,0,0,0,0,0,0,0,0,0,0,0,100,0,100,0,0,0,0,100,0,0,0,0,0,0,0,0,0,0,0,
100,100,100,0,0,0,0,0,0,0,100,0,0,0,0,0,0,100,0,0,0,100,0,0,0,0,0,100,0,100,0,0,100,0,0,0,0,100,0,0,0,0,0,0,0,0,0,0,
0,100,0,0,0,0,0,100,0,0,0,0,0,0,0,0,100,0,0,0,100,0,0,0,0,0,0,0,0,0,0,0,0,0,0,0,0,100,0,0,0,0,0,0,0,0,0,0,
0,0,0,0,0,0,0,0,0,0,0,100,0,0,0,0,0,0,100,0,0,0,100,100,0,0,0,100,0,100,0,0,100,100,0,0,0,100,100,0,0,0,0,0,0,0,100,0,
0,0,0,0,0,0,0,0,0,0,0,0,0,0,0,0,0,0,0,0,0,0,0,0,0,0,0,0,0,0,0,0,0,0,0,0,0,0,0,0,0,0,0,0,0,0,0,0,
0,0,0,0,0,0,0,0,0,0,0,0,0,0,0,0,0,0,0,0,0,0,0,0,0,0,0,0,0,0,0,0,0,0,0,0,0,0,0,0,0,0,0,0,0,0,0,0,
100,0,0,0,0,0,0,0,0,0,0,0,0,0,0,0,0,0,0,100,0,0,0,100,0,0,0,0,0,0,0,0,0,0,0,0,0,100,0,100,0,0,0,0,0,0,0,0,
0,0,100,0,0,0,0,0,0,0,0,0,0,0,0,0,0,0,0,0,0,0,100,0,0,0,100,0,0,0,0,0,0,0,0,0,0,100,100,0,0,100,100,0,0,0,100,0,
100,0,0,100,0,0,0,0,0,0,100,0,0,0,0,0,0,0,0,0,0,0,0,0,0,0,0,0,0,0,100,100,0,0,0,0,0,0,0,0,0,100,0,0,0,0,100,0,
0,0,0,0,0,0,0,0,0,0,100,100,0,0,0,0,0,0,0,0,100,0,0,0,0,0,0,0,100,0,0,0,0,0,0,0,0,0,0,0,0,0,0,0,0,0,100,0,
100,100,0,0,0,0,0,0,0,100,0,0,0,0,0,0,0,100,100,0,0,0,0,0,0,0,0,0,100,100,0,0,0,0,0,0,0,0,0,0,0,0,100,100,0,0,100,0,
100,0,0,0,0,0,0,0,100,0,0,0,0,0,0,0,0,0,0,0,0,100,0,0,0,0,0,0,100,0,0,0,0,0,0,0,100,0,0,100,0,0,0,100,0,0,0,100
  </data>
 </layer>
 <objectgroup id="3" name="Objects">
  <object id="1" name="shipper_spawn" type="spawn" x="128" y="128" width="32" height="32" />
  <object id="2" name="customer_house_1" type="customer" x="448" y="448" width="32" height="32" />
 </objectgroup>
</map>
