<?xml version="1.0" encoding="UTF-8"?>
<map version="1.10" tiledversion="1.12.2" orientation="orthogonal" renderorder="right-down" width="48" height="32" tilewidth="32" tileheight="32" infinite="0" nextlayerid="14" nextobjectid="91">
 <tileset firstgid="1" source="road_tiles.tsx"/>
 <tileset firstgid="2" source="collision_tiles.tsx"/>
 <imagelayer id="5" name="Background" locked="1">
  <image source="C:/Users/acer/Downloads/map3.png" width="1538" height="1022"/>
 </imagelayer>
 <layer id="3" name="Road_AI" width="48" height="32" visible="0">
  <data encoding="csv">
0,0,0,0,0,0,0,0,1,0,0,0,0,0,0,0,0,0,1,0,0,0,0,0,0,0,0,0,0,0,0,0,0,1,0,0,0,0,0,0,1,0,0,0,0,0,0,0,
0,0,0,0,0,0,0,0,1,0,0,0,0,0,0,0,0,0,1,0,0,0,0,0,1,1,1,1,1,1,1,1,1,1,0,0,0,0,0,0,1,0,0,0,0,0,0,0,
0,0,0,0,0,0,0,0,1,0,0,0,0,0,0,0,0,0,1,0,0,0,0,0,1,0,0,0,0,1,0,0,0,1,0,0,0,0,0,0,1,0,0,0,0,0,0,0,
0,0,0,0,0,0,0,0,1,0,0,0,0,0,0,0,0,0,1,0,0,0,0,0,1,0,0,0,0,1,0,0,0,1,0,0,0,0,0,0,1,1,0,0,0,0,0,0,
1,1,1,1,1,1,1,1,1,1,1,1,1,1,1,1,1,1,0,1,1,1,1,1,1,1,1,1,1,1,1,1,1,1,1,1,1,1,1,1,0,1,1,1,1,1,1,1,
0,0,0,1,0,0,0,0,1,0,0,0,0,0,0,0,0,0,1,1,0,0,0,0,0,0,0,0,0,0,0,1,0,0,0,0,0,0,0,0,1,1,0,0,0,0,0,0,
0,0,0,1,0,0,0,0,1,0,0,0,0,0,0,0,0,0,1,0,1,0,0,0,0,0,0,0,0,0,0,1,0,0,0,0,0,0,0,0,1,0,1,0,0,0,0,0,
0,0,0,1,0,0,0,0,1,0,0,0,0,0,0,0,0,0,1,0,0,1,0,0,0,0,0,0,0,0,0,1,0,0,0,0,0,0,0,0,1,0,0,1,0,0,0,0,
0,0,0,1,0,0,0,0,1,0,0,0,0,0,0,0,0,0,1,0,0,0,1,0,0,0,0,0,0,0,0,1,0,0,0,0,0,0,0,0,1,0,0,0,1,1,0,0,
0,0,0,1,0,0,0,0,1,0,0,0,0,0,0,0,0,0,1,0,0,0,0,1,0,0,0,0,0,0,0,1,0,0,0,0,0,0,0,0,1,0,0,0,0,1,0,0,
0,0,0,1,0,0,0,0,1,0,0,0,0,0,0,0,0,0,1,0,0,0,0,0,1,0,0,0,0,0,0,1,0,0,0,0,0,0,0,0,1,0,0,0,0,0,1,0,
0,0,0,1,0,0,0,0,1,0,0,1,0,0,0,0,0,0,1,0,0,0,0,0,0,1,1,0,0,0,0,1,0,0,0,0,1,0,0,0,1,0,0,0,0,0,0,1,
0,0,0,1,0,0,0,0,1,0,0,1,0,0,0,0,0,0,1,0,0,0,0,0,0,0,1,0,0,0,0,1,0,0,0,0,1,0,0,0,1,0,0,0,0,0,0,0,
1,1,1,1,1,1,1,1,1,1,1,1,1,1,1,1,1,1,1,1,1,1,1,1,1,1,1,1,1,1,1,1,1,1,1,1,1,0,0,0,1,0,0,0,0,0,0,0,
0,0,0,1,0,0,0,0,1,1,0,0,0,0,0,0,0,0,1,0,0,0,0,0,0,0,0,0,1,0,0,1,0,0,0,0,1,0,0,0,1,0,0,0,0,0,0,0,
0,0,0,1,0,0,0,0,1,0,1,0,0,0,0,0,0,0,1,0,0,0,0,0,0,0,0,0,0,1,0,1,0,0,0,0,1,0,0,0,1,0,0,0,0,0,0,0,
0,0,0,1,0,0,0,0,1,0,0,1,0,0,0,0,0,0,1,0,0,0,0,0,0,0,0,0,0,0,1,1,0,0,0,0,1,0,0,0,1,0,0,0,0,0,0,0,
0,0,0,1,0,0,0,0,1,0,0,0,1,0,0,0,0,0,1,0,0,0,0,0,0,0,0,0,0,0,0,1,0,1,0,0,1,0,0,0,1,0,0,0,0,0,0,0,
0,0,0,1,1,0,0,0,1,0,0,0,0,1,1,0,0,0,1,0,0,0,0,0,0,0,0,0,0,0,0,1,1,1,1,1,1,0,0,0,1,0,0,0,0,0,0,0,
0,0,0,1,0,1,0,0,1,0,0,0,0,0,1,0,0,0,1,0,0,0,0,0,0,0,0,0,0,0,0,1,0,1,0,0,0,0,0,0,1,0,0,0,0,0,0,0,
0,0,0,1,0,0,1,0,1,0,0,0,0,0,0,1,0,0,1,0,0,0,0,0,0,0,0,0,0,0,0,1,0,0,1,0,0,0,0,0,1,0,0,0,0,0,0,0,
0,0,0,1,0,0,0,1,1,0,0,0,0,0,0,0,1,0,1,0,0,0,0,0,0,0,0,1,1,1,1,1,0,0,0,1,0,0,0,0,1,0,0,0,0,0,0,0,
0,0,0,1,0,0,0,0,1,0,0,0,0,0,0,0,0,1,1,0,0,0,0,0,0,0,0,0,0,0,0,1,0,0,0,0,1,1,0,0,1,0,0,0,0,0,0,0,
0,0,0,1,0,0,0,0,1,1,0,0,0,0,0,0,0,0,1,0,0,0,0,0,0,0,0,0,0,0,0,1,0,0,0,0,0,1,0,0,1,0,0,0,0,0,0,0,
0,0,0,1,0,0,0,0,1,0,1,0,0,1,0,0,0,0,1,0,0,0,0,0,0,0,0,0,0,0,0,1,0,0,0,0,0,0,1,0,1,0,0,0,0,0,1,0,
1,1,1,1,1,1,1,1,1,1,1,1,1,1,1,1,1,1,0,1,1,1,1,1,1,1,1,1,1,1,1,1,1,1,1,1,1,1,1,1,1,1,1,1,1,1,1,1,
0,0,0,0,0,0,0,0,1,0,0,0,1,0,0,0,0,0,1,0,0,0,0,0,0,0,0,0,0,0,0,1,0,0,0,0,0,0,0,0,1,0,0,0,0,0,0,0,
0,0,0,0,0,0,0,0,1,0,0,0,0,1,0,0,0,0,1,0,0,0,0,0,0,0,0,0,0,0,0,1,0,0,0,0,0,0,0,0,1,1,0,0,0,0,0,0,
0,0,0,0,0,0,0,0,1,0,0,0,0,0,1,1,0,0,1,0,0,0,0,0,0,0,0,0,0,0,0,1,0,0,0,0,0,0,0,0,1,0,1,0,0,0,0,0,
0,0,0,0,0,0,0,0,1,0,0,0,0,0,0,1,0,0,1,0,0,0,0,0,0,0,0,0,0,0,0,1,0,0,0,0,0,0,0,0,1,0,0,1,1,1,0,0,
0,0,0,0,0,0,0,0,1,0,0,0,0,0,0,0,1,0,1,0,0,0,1,0,0,0,0,0,0,0,0,1,0,0,1,0,0,0,0,0,1,0,0,0,1,0,0,0,
0,0,0,0,0,0,0,0,1,0,0,0,0,0,0,0,0,1,1,1,1,1,1,0,0,0,0,0,0,0,0,1,1,1,1,0,0,0,0,0,1,0,0,0,0,1,0,0
</data>
 </layer>
 <layer id="2" name="Collision" width="48" height="32">
  <data encoding="csv">
2,2,2,2,2,2,2,2,0,2,2,2,2,2,2,2,2,2,0,2,2,2,2,2,2,2,2,2,2,2,2,2,2,0,2,2,2,2,2,2,0,2,2,2,2,2,2,2,
2,2,2,2,2,2,2,2,0,2,2,2,2,2,2,2,2,2,0,2,2,2,2,2,0,0,0,0,0,0,0,0,0,0,2,2,2,2,2,2,0,2,2,2,2,2,2,2,
2,2,2,2,2,2,2,2,0,2,2,2,2,2,2,2,2,2,0,2,2,2,2,2,0,2,2,2,2,0,2,2,2,0,2,2,2,2,2,2,0,2,2,2,2,2,2,2,
2,2,2,2,2,2,2,2,0,2,2,2,2,2,2,2,2,2,0,2,2,2,2,2,0,2,2,2,2,0,2,2,2,0,2,2,2,2,2,2,0,0,2,2,2,2,2,2,
0,0,0,0,0,0,0,0,0,0,0,0,0,0,0,0,0,0,2,0,0,0,0,0,0,0,0,0,0,0,0,0,0,0,0,0,0,0,0,0,2,0,0,0,0,0,0,0,
2,2,2,0,2,2,2,2,0,2,2,2,2,2,2,2,2,2,0,0,2,2,2,2,2,2,2,2,2,2,2,0,2,2,2,2,2,2,2,2,0,0,2,2,2,2,2,2,
2,2,2,0,2,2,2,2,0,2,2,2,2,2,2,2,2,2,0,2,0,2,2,2,2,2,2,2,2,2,2,0,2,2,2,2,2,2,2,2,0,2,0,2,2,2,2,2,
2,2,2,0,2,2,2,2,0,2,2,2,2,2,2,2,2,2,0,2,2,0,2,2,2,2,2,2,2,2,2,0,2,2,2,2,2,2,2,2,0,2,2,0,2,2,2,2,
2,2,2,0,2,2,2,2,0,2,2,2,2,2,2,2,2,2,0,2,2,2,0,2,2,2,2,2,2,2,2,0,2,2,2,2,2,2,2,2,0,2,2,2,0,0,2,2,
2,2,2,0,2,2,2,2,0,2,2,2,2,2,2,2,2,2,0,2,2,2,2,0,2,2,2,2,2,2,2,0,2,2,2,2,2,2,2,2,0,2,2,2,2,0,2,2,
2,2,2,0,2,2,2,2,0,2,2,2,2,2,2,2,2,2,0,2,2,2,2,2,0,2,2,2,2,2,2,0,2,2,2,2,2,2,2,2,0,2,2,2,2,2,0,2,
2,2,2,0,2,2,2,2,0,2,2,0,2,2,2,2,2,2,0,2,2,2,2,2,2,0,0,2,2,2,2,0,2,2,2,2,0,2,2,2,0,2,2,2,2,2,2,0,
2,2,2,0,2,2,2,2,0,2,2,0,2,2,2,2,2,2,0,2,2,2,2,2,2,2,0,2,2,2,2,0,2,2,2,2,0,2,2,2,0,2,2,2,2,2,2,2,
0,0,0,0,0,0,0,0,0,0,0,0,0,0,0,0,0,0,0,0,0,0,0,0,0,0,0,0,0,0,0,0,0,0,0,0,0,2,2,2,0,2,2,2,2,2,2,2,
2,2,2,0,2,2,2,2,0,0,2,2,2,2,2,2,2,2,0,2,2,2,2,2,2,2,2,2,0,2,2,0,2,2,2,2,0,2,2,2,0,2,2,2,2,2,2,2,
2,2,2,0,2,2,2,2,0,2,0,2,2,2,2,2,2,2,0,2,2,2,2,2,2,2,2,2,2,0,2,0,2,2,2,2,0,2,2,2,0,2,2,2,2,2,2,2,
2,2,2,0,2,2,2,2,0,2,2,0,2,2,2,2,2,2,0,2,2,2,2,2,2,2,2,2,2,2,0,0,2,2,2,2,0,2,2,2,0,2,2,2,2,2,2,2,
2,2,2,0,2,2,2,2,0,2,2,2,0,2,2,2,2,2,0,2,2,2,2,2,2,2,2,2,2,2,2,0,2,0,2,2,0,2,2,2,0,2,2,2,2,2,2,2,
2,2,2,0,0,2,2,2,0,2,2,2,2,0,0,2,2,2,0,2,2,2,2,2,2,2,2,2,2,2,2,0,0,0,0,0,0,2,2,2,0,2,2,2,2,2,2,2,
2,2,2,0,2,0,2,2,0,2,2,2,2,2,0,2,2,2,0,2,2,2,2,2,2,2,2,2,2,2,2,0,2,0,2,2,2,2,2,2,0,2,2,2,2,2,2,2,
2,2,2,0,2,2,0,2,0,2,2,2,2,2,2,0,2,2,0,2,2,2,2,2,2,2,2,2,2,2,2,0,2,2,0,2,2,2,2,2,0,2,2,2,2,2,2,2,
2,2,2,0,2,2,2,0,0,2,2,2,2,2,2,2,0,2,0,2,2,2,2,2,2,2,2,0,0,0,0,0,2,2,2,0,2,2,2,2,0,2,2,2,2,2,2,2,
2,2,2,0,2,2,2,2,0,2,2,2,2,2,2,2,2,0,0,2,2,2,2,2,2,2,2,2,2,2,2,0,2,2,2,2,0,0,2,2,0,2,2,2,2,2,2,2,
2,2,2,0,2,2,2,2,0,0,2,2,2,2,2,2,2,2,0,2,2,2,2,2,2,2,2,2,2,2,2,0,2,2,2,2,2,0,2,2,0,2,2,2,2,2,2,2,
2,2,2,0,2,2,2,2,0,2,0,2,2,0,2,2,2,2,0,2,2,2,2,2,2,2,2,2,2,2,2,0,2,2,2,2,2,2,0,2,0,2,2,2,2,2,0,2,
0,0,0,0,0,0,0,0,0,0,0,0,0,0,0,0,0,0,2,0,0,0,0,0,0,0,0,0,0,0,0,0,0,0,0,0,0,0,0,0,0,0,0,0,0,0,0,0,
2,2,2,2,2,2,2,2,0,2,2,2,0,2,2,2,2,2,0,2,2,2,2,2,2,2,2,2,2,2,2,0,2,2,2,2,2,2,2,2,0,2,2,2,2,2,2,2,
2,2,2,2,2,2,2,2,0,2,2,2,2,0,2,2,2,2,0,2,2,2,2,2,2,2,2,2,2,2,2,0,2,2,2,2,2,2,2,2,0,0,2,2,2,2,2,2,
2,2,2,2,2,2,2,2,0,2,2,2,2,2,0,0,2,2,0,2,2,2,2,2,2,2,2,2,2,2,2,0,2,2,2,2,2,2,2,2,0,2,0,2,2,2,2,2,
2,2,2,2,2,2,2,2,0,2,2,2,2,2,2,0,2,2,0,2,2,2,2,2,2,2,2,2,2,2,2,0,2,2,2,2,2,2,2,2,0,2,2,0,0,0,2,2,
2,2,2,2,2,2,2,2,0,2,2,2,2,2,2,2,0,2,0,2,2,2,0,2,2,2,2,2,2,2,2,0,2,2,0,2,2,2,2,2,0,2,2,2,0,2,2,2,
2,2,2,2,2,2,2,2,0,2,2,2,2,2,2,2,2,0,0,0,0,0,0,2,2,2,2,2,2,2,2,0,0,0,0,2,2,2,2,2,0,2,2,2,2,0,2,2
</data>
 </layer>
 <objectgroup id="7" name="Objects">
  <object id="13" name="pickup_supermarket" type="PickupPoint" x="384" y="128" width="32" height="32">
   <properties>
    <property name="base_reward" type="int" value="400"/>
    <property name="shop_name" value="Supermarket"/>
   </properties>
  </object>
  <object id="21" name="pickup_bakery" type="PickupPoint" x="576" y="512" width="32" height="32">
   <properties>
    <property name="base_reward" type="int" value="140"/>
    <property name="shop_name" value="Bakery"/>
   </properties>
  </object>
  <object id="22" name="pickup_supermarket" type="PickupPoint" x="864" y="672" width="32" height="32">
   <properties>
    <property name="base_reward" type="int" value="420"/>
    <property name="shop_name" value="Supermarket"/>
   </properties>
  </object>
  <object id="23" name="pickup_pizza" type="PickupPoint" x="704" y="960" width="32" height="32">
   <properties>
    <property name="base_reward" type="int" value="320"/>
    <property name="shop_name" value="Pizza"/>
   </properties>
  </object>
  <object id="27" name="pickup_medicalclinic" type="PickupPoint" x="1440" y="928" width="32" height="32">
   <properties>
    <property name="base_reward" type="int" value="280"/>
    <property name="shop_name" value="MedicalClinic"/>
   </properties>
  </object>
  <object id="28" name="pickup_electronics" type="PickupPoint" x="1152" y="128" width="32" height="32">
   <properties>
    <property name="base_reward" type="int" value="190"/>
    <property name="shop_name" value="Electronics"/>
   </properties>
  </object>
  <object id="34" name="house_3" type="DeliveryPoint" x="96" y="192" width="32" height="32"/>
  <object id="45" name="house_13" type="DeliveryPoint" x="96" y="736" width="32" height="32"/>
  <object id="52" name="house_20" type="DeliveryPoint" x="576" y="192" width="32" height="32"/>
  <object id="62" name="house_30" type="DeliveryPoint" x="928" y="480" width="32" height="32"/>
  <object id="66" name="house_32" type="DeliveryPoint" x="992" y="960" width="31.5" height="32.5"/>
  <object id="72" name="house_38" type="DeliveryPoint" x="1312" y="96" width="32" height="32"/>
  <object id="83" name="algorithm_spawn_1" type="NPC" x="864" y="416" width="32" height="32"/>
  <object id="84" name="algorithm_spawn_2" type="NPC" x="864" y="416" width="32" height="32"/>
  <object id="85" name="algorithm_spawn_3" type="NPC" x="864" y="416" width="32" height="32"/>
  <object id="86" name="traffic_trap_1" type="TrafficTrap" x="512" y="416" width="32" height="32"/>
  <object id="87" name="traffic_trap_2" type="TrafficTrap" x="96" y="320" width="32" height="32"/>
  <object id="88" name="traffic_trap_3" type="TrafficTrap" x="256" y="64" width="32" height="32"/>
</objectgroup>
</map>
