<?xml version="1.0" encoding="UTF-8"?>
<map version="1.10" tiledversion="1.12.2" orientation="orthogonal" renderorder="right-down" width="48" height="32" tilewidth="32" tileheight="32" infinite="0" nextlayerid="7" nextobjectid="76">
 <tileset firstgid="1" source="../road_tiles.tsx"/>
 <tileset firstgid="2" source="../collision_tiles.tsx"/>
 <imagelayer id="2" name="Background">
  <image source="../../AI/Super-Delivery-Game/assets/images/map/map1.png" width="1535" height="1024"/>
 </imagelayer>
 <layer id="3" name="Road_AI" width="48" height="32">
  <data encoding="csv">
0,0,0,0,0,0,0,0,0,0,1,0,0,0,0,1,0,0,0,0,0,0,0,1,0,0,0,0,0,0,0,1,0,0,0,0,0,0,0,1,0,0,0,0,0,0,0,0,
1,1,1,1,1,1,1,1,1,1,1,0,0,0,0,1,1,1,1,1,1,1,1,1,0,0,1,1,1,1,1,1,1,1,1,1,1,1,1,1,0,0,1,1,1,1,1,1,
1,0,0,0,0,0,0,0,0,0,1,0,0,0,0,1,0,0,0,0,0,0,0,1,0,0,0,0,0,0,0,1,0,0,0,0,0,0,0,1,0,0,0,0,0,0,0,0,
1,0,0,0,0,0,0,0,0,0,1,0,0,0,0,1,0,0,0,0,0,0,0,1,0,0,0,0,0,0,0,1,0,0,0,0,0,0,0,1,0,0,0,0,0,0,0,0,
1,0,0,0,0,0,0,0,0,0,1,0,0,0,0,1,0,0,0,0,0,0,0,1,0,0,0,0,0,0,0,1,0,0,0,0,0,0,0,1,0,0,0,0,0,0,0,0,
1,0,0,0,0,0,0,0,0,0,1,0,0,0,0,1,0,0,0,1,0,0,0,1,0,0,0,0,0,0,0,1,0,0,0,0,0,0,0,1,0,0,0,0,0,0,0,0,
1,1,1,1,1,1,1,1,1,1,1,1,1,1,1,1,1,1,1,1,1,1,1,1,1,1,1,1,1,1,1,1,1,1,1,1,1,1,1,1,1,1,1,1,1,0,0,0,
1,0,0,0,0,1,0,0,0,0,1,0,0,0,0,1,0,0,0,0,1,0,0,1,0,0,0,0,0,0,0,1,0,0,0,0,0,0,0,1,0,0,0,0,1,0,0,0,
1,0,0,0,0,1,0,0,0,0,1,0,0,0,0,1,0,0,0,0,1,0,0,1,0,0,0,0,0,0,0,1,0,0,0,0,0,0,0,1,0,0,0,0,1,0,0,0,
1,0,0,0,0,1,0,0,0,0,1,0,0,0,0,1,0,0,0,0,1,0,0,1,0,0,0,0,0,0,0,1,0,0,0,0,0,0,0,1,0,0,0,0,1,0,0,0,
1,0,0,0,0,1,0,0,0,0,1,0,0,0,0,1,0,0,0,0,1,0,0,1,0,0,0,0,0,0,0,1,0,0,0,0,0,0,0,1,0,0,0,0,1,0,0,0,
1,1,1,1,1,1,1,1,1,1,1,1,1,1,1,1,1,1,1,1,1,1,1,1,1,1,1,1,1,1,1,1,1,1,1,1,1,1,1,1,1,1,1,1,1,1,1,1,
1,0,0,0,0,1,0,0,0,0,1,0,0,0,0,1,0,0,0,0,0,0,0,1,0,0,0,1,0,0,0,1,0,0,0,1,0,0,0,1,0,0,0,0,1,0,1,0,
1,0,0,0,0,1,0,0,0,0,1,0,0,0,0,1,0,0,0,0,0,0,0,1,0,0,0,1,0,0,0,1,0,0,0,1,0,0,0,1,0,0,0,0,1,0,1,0,
1,0,0,0,0,1,0,0,0,0,1,0,0,0,0,1,0,0,0,0,0,0,0,1,0,0,0,1,0,0,0,1,0,0,0,1,0,0,0,1,0,0,0,0,1,0,1,0,
1,0,0,0,0,1,0,0,0,0,1,0,0,0,0,1,0,0,0,0,0,0,0,1,0,1,0,1,0,0,0,1,0,0,0,1,0,1,0,1,0,0,0,0,1,0,1,0,
1,1,1,1,1,1,1,1,1,1,1,1,1,1,1,1,1,1,1,1,1,1,1,1,1,1,1,1,1,1,1,1,1,1,1,1,1,1,1,1,0,0,0,0,1,1,1,1,
1,0,0,0,0,0,0,0,0,0,1,0,0,0,0,1,0,0,0,0,0,0,0,1,0,0,0,0,0,0,0,1,0,0,0,0,0,0,0,1,0,0,0,0,1,0,1,0,
1,0,0,0,0,0,0,0,0,0,1,0,0,0,0,1,0,0,0,0,0,0,0,1,0,0,0,0,0,0,0,1,1,1,1,1,1,1,1,1,0,0,0,0,1,1,1,1,
1,0,0,0,0,0,0,0,0,0,1,0,0,0,0,1,0,0,0,0,0,0,0,1,0,0,0,0,0,0,0,1,0,0,0,0,0,0,0,1,0,0,0,0,1,0,0,0,
1,0,0,0,0,0,0,0,0,0,1,0,0,0,0,1,0,0,0,0,0,0,0,1,0,0,0,1,0,0,0,1,0,0,0,0,0,0,0,1,0,0,0,0,1,0,0,0,
1,0,0,0,0,0,0,0,0,0,1,1,1,1,1,1,1,1,1,1,1,1,1,1,1,1,1,1,1,1,1,1,1,1,1,1,1,1,1,1,1,1,1,1,1,0,0,0,
1,0,0,0,0,0,0,0,0,0,1,0,0,0,0,1,0,0,0,0,0,0,0,1,0,1,0,0,0,1,0,1,0,0,0,1,0,0,0,1,0,0,0,0,1,0,0,0,
1,0,0,0,0,0,0,0,0,0,1,0,0,0,0,1,0,0,0,0,0,0,0,1,1,0,0,0,0,1,0,1,0,0,0,1,0,0,0,1,0,0,0,0,1,0,0,0,
1,0,0,0,0,0,0,0,0,0,1,0,0,0,0,1,0,0,0,0,0,0,0,1,0,0,0,0,0,1,0,1,0,1,0,1,0,0,0,1,0,0,0,0,1,0,0,0,
1,1,1,1,1,1,1,1,1,1,1,1,1,1,1,1,1,1,1,1,1,1,1,1,1,1,1,1,1,1,1,1,1,1,1,1,1,1,1,1,1,1,1,1,1,1,1,1,
1,0,0,0,0,1,0,0,0,0,1,0,0,0,0,1,0,0,0,0,0,0,0,1,0,0,0,0,0,0,0,1,0,0,0,0,0,0,0,1,0,0,0,0,1,0,0,0,
1,1,1,1,1,1,1,1,1,1,1,0,0,0,0,1,0,0,0,0,0,0,0,1,1,1,1,1,1,1,1,1,1,0,0,0,0,0,0,1,1,1,1,1,1,1,1,1,
1,0,0,0,0,1,0,0,0,0,1,0,0,0,0,1,0,0,0,0,0,0,0,1,0,0,0,0,0,0,0,1,0,0,0,0,0,0,0,1,0,0,0,0,1,0,0,0,
1,0,0,0,0,1,0,0,0,0,1,0,0,0,0,1,0,0,0,0,0,0,0,1,0,0,0,0,0,0,0,1,0,0,0,0,0,0,0,1,0,0,0,0,1,0,0,0,
1,1,1,1,1,1,1,1,1,1,1,1,1,1,1,1,1,1,1,1,1,1,1,1,1,1,1,1,1,1,1,1,1,1,1,1,1,1,1,1,0,0,0,0,1,0,0,0,
1,0,0,0,0,0,0,0,0,0,1,0,0,0,0,1,0,0,0,0,0,0,0,1,0,0,0,0,0,0,0,1,0,0,0,0,0,0,0,1,0,0,0,0,1,0,0,0
</data>
 </layer>
 <layer id="4" name="Collision" width="48" height="32">
  <data encoding="csv">
2,2,2,2,2,2,2,2,2,2,0,2,2,2,2,0,2,2,2,2,2,2,2,0,2,2,2,2,2,2,2,0,2,2,2,2,2,2,2,0,2,2,2,2,2,2,2,2,
0,0,0,0,0,0,0,0,0,0,0,2,2,2,2,0,0,0,0,0,0,0,0,0,2,2,0,0,0,0,0,0,0,0,0,0,0,0,0,0,2,2,0,0,0,0,0,0,
0,2,2,2,2,2,2,2,2,2,0,2,2,2,2,0,2,2,2,2,2,2,2,0,2,2,2,2,2,2,2,0,2,2,2,2,2,2,2,0,2,2,2,2,2,2,2,2,
0,2,2,2,2,2,2,2,2,2,0,2,2,2,2,0,2,2,2,2,2,2,2,0,2,2,2,2,2,2,2,0,2,2,2,2,2,2,2,0,2,2,2,2,2,2,2,2,
0,2,2,2,2,2,2,2,2,2,0,2,2,2,2,0,2,2,2,2,2,2,2,0,2,2,2,2,2,2,2,0,2,2,2,2,2,2,2,0,2,2,2,2,2,2,2,2,
0,2,2,2,1,2,2,2,2,2,0,2,1,2,2,0,2,2,2,0,2,2,2,0,2,2,2,2,1,2,2,0,2,2,2,1,2,2,2,0,2,2,2,2,2,2,2,2,
0,0,0,0,0,0,0,0,0,0,0,0,0,0,0,0,0,0,0,0,0,0,0,0,0,0,0,0,0,0,0,0,0,0,0,0,0,0,0,0,0,0,0,0,0,2,2,2,
0,2,2,2,2,0,2,2,2,2,0,2,2,2,2,0,2,2,2,2,0,2,2,0,2,2,2,2,2,2,2,0,2,2,2,2,2,2,2,0,2,2,2,2,0,2,2,2,
0,2,2,2,2,0,2,2,2,2,0,2,2,2,2,0,2,2,2,2,0,2,2,0,2,2,2,2,2,2,2,0,2,2,2,2,2,2,2,0,2,2,2,2,0,2,2,2,
0,2,2,2,2,0,2,2,2,2,0,2,2,2,2,0,2,2,2,2,0,2,2,0,2,2,2,2,2,2,2,0,2,2,2,2,2,2,2,0,2,2,2,2,0,2,2,2,
0,2,1,2,2,0,2,2,2,2,0,2,2,1,2,0,2,2,1,2,0,2,2,0,2,2,2,2,1,2,2,0,2,1,2,2,1,2,2,0,2,1,2,2,0,2,2,2,
0,0,0,0,0,0,0,0,0,0,0,0,0,0,0,0,0,0,0,0,0,0,0,0,0,0,0,0,0,0,0,0,0,0,0,0,0,0,0,0,0,0,0,0,0,0,0,0,
0,2,2,2,2,0,2,2,2,2,0,2,2,2,2,0,2,2,2,2,2,2,2,0,2,2,2,0,2,2,2,0,2,2,2,0,2,2,2,0,2,2,2,2,0,2,0,2,
0,2,2,2,2,0,2,2,2,2,0,2,2,2,2,0,2,2,2,2,2,2,2,0,2,2,2,0,2,2,2,0,2,2,2,0,2,2,2,0,1,1,1,1,0,2,0,2,
0,2,2,2,2,0,2,2,2,2,0,2,2,2,2,0,2,2,2,2,2,2,2,0,2,2,2,0,2,2,2,0,2,2,2,0,2,2,2,0,2,2,2,2,0,2,0,2,
0,2,2,1,2,0,2,1,2,2,0,2,2,2,2,0,2,2,2,2,2,2,2,0,2,0,2,0,2,2,2,0,2,1,2,0,2,0,2,0,2,2,2,2,0,2,0,2,
0,0,0,0,0,0,0,0,0,0,0,0,0,0,0,0,0,0,0,0,0,0,0,0,0,0,0,0,0,0,0,0,0,0,0,0,0,0,0,0,2,2,2,2,0,0,0,0,
0,2,2,2,2,2,2,2,2,2,0,2,2,2,2,0,2,2,2,2,2,2,2,0,2,2,2,2,2,2,2,0,2,2,2,2,2,2,2,0,2,2,2,2,0,2,0,2,
0,2,2,2,2,2,2,2,2,2,0,2,2,2,2,0,2,2,2,2,2,2,2,0,2,2,2,2,2,2,2,0,0,0,0,0,0,0,0,0,2,2,2,2,0,0,0,0,
0,2,2,2,2,2,2,2,2,2,0,2,2,2,2,0,2,2,2,2,2,2,2,0,2,2,2,2,2,2,2,0,2,2,2,2,2,2,2,0,2,2,2,2,0,2,2,2,
0,2,2,2,2,2,2,2,2,2,0,2,1,2,2,0,2,1,2,2,2,2,2,0,2,2,2,2,2,2,2,0,2,2,1,2,2,2,2,0,2,2,2,2,0,2,2,2,
0,2,2,2,2,2,2,2,2,2,0,0,0,0,0,0,0,0,0,0,0,0,0,0,0,0,0,0,0,0,0,0,0,0,0,0,0,0,0,0,0,0,0,0,0,2,2,2,
0,2,2,2,2,2,2,2,2,2,0,2,2,2,2,0,2,2,2,2,2,2,2,0,2,2,2,2,2,0,2,0,2,2,2,0,2,2,2,0,2,2,2,2,0,2,2,2,
0,2,2,2,2,2,2,2,2,2,0,2,2,2,2,0,2,2,2,2,2,2,2,0,2,2,2,2,2,0,2,0,2,2,2,0,2,2,2,0,2,2,2,2,0,2,2,2,
0,2,2,2,2,1,2,2,2,2,0,2,2,2,2,0,2,2,2,1,2,2,2,0,2,2,2,2,2,0,2,0,2,0,2,0,2,2,2,0,2,2,2,2,0,2,2,2,
0,0,0,0,0,0,0,0,0,0,0,0,0,0,0,0,0,0,0,0,0,0,0,0,0,0,0,0,0,0,0,0,0,0,0,0,0,0,0,0,0,0,0,0,0,0,0,0,
0,2,2,2,2,0,2,2,2,2,0,2,2,2,2,0,2,2,2,2,2,2,2,0,2,2,2,2,2,2,2,0,2,2,2,2,2,2,2,0,2,2,2,2,0,2,2,2,
0,0,0,0,0,0,0,0,0,0,0,2,2,2,2,0,2,2,2,2,2,2,2,0,0,0,0,0,0,0,0,0,0,2,2,2,2,2,2,0,0,0,0,0,0,0,0,0,
0,2,2,2,2,0,2,2,2,2,0,2,2,2,2,0,2,2,2,2,2,2,2,0,2,2,2,2,2,2,2,0,2,2,2,2,2,2,2,0,2,2,2,2,0,2,2,2,
0,2,2,2,2,0,2,2,2,2,0,2,2,2,2,0,2,2,2,2,2,2,2,0,2,2,2,2,2,2,2,0,2,2,2,2,2,2,2,0,2,2,2,2,0,2,2,2,
0,0,0,0,0,0,0,0,0,0,0,0,0,0,0,0,0,0,0,0,0,0,0,0,0,0,0,0,0,0,0,0,0,0,0,0,0,0,0,0,2,2,2,2,0,2,2,2,
0,2,2,2,2,2,2,2,2,2,0,2,2,2,2,0,2,2,2,2,2,2,2,0,2,2,2,2,2,2,2,0,2,2,2,2,2,2,2,0,2,2,2,2,0,2,2,2
</data>
 </layer>
 <objectgroup id="6" name="Objects">
  <object id="5" name="pickup_megamart" type="PickupPoint" x="128" y="160" width="32" height="32">
   <properties>
    <property name="base_reward" type="int" value="300"/>
    <property name="shop_name" value="MegaMart"/>
   </properties>
  </object>
  <object id="6" name="pickup_townmall" type="PickupPoint" x="896" y="160" width="32" height="32">
   <properties>
    <property name="base_reward" type="int" value="60"/>
    <property name="shop_name" value="TownMall"/>
   </properties>
  </object>
  <object id="7" name="pickup_furniture" type="PickupPoint" x="64" y="320" width="32" height="32">
   <properties>
    <property name="base_reward" type="int" value="200"/>
    <property name="shop_name" value="Furniture"/>
   </properties>
  </object>
  <object id="8" name="pickup_cafe" type="PickupPoint" x="416" y="320" width="32" height="32">
   <properties>
    <property name="base_reward" type="int" value="20"/>
    <property name="shop_name" value="Cafe"/>
   </properties>
  </object>
  <object id="9" name="pickup_toyshop" type="PickupPoint" x="96" y="480" width="32" height="32">
   <properties>
    <property name="base_reward" type="int" value="36"/>
    <property name="shop_name" value="ToyShop"/>
   </properties>
  </object>
  <object id="10" name="pickup_bakery" type="PickupPoint" x="224" y="480" width="32" height="32">
   <properties>
    <property name="base_reward" type="int" value="20"/>
    <property name="shop_name" value="Bakery"/>
   </properties>
  </object>
  <object id="11" x="-142" y="480"/>
  <object id="12" name="pickup_farmshop" type="PickupPoint" x="384" y="640" width="32" height="32">
   <properties>
    <property name="base_reward" type="int" value="40"/>
    <property name="shop_name" value="FarmShop"/>
   </properties>
  </object>
  <object id="13" name="pickup_generalstore" type="PickupPoint" x="544" y="640" width="32" height="32">
   <properties>
    <property name="base_reward" type="int" value="32"/>
    <property name="shop_name" value="GeneralStore"/>
   </properties>
  </object>
  <object id="15" name="pickup_petshop" type="PickupPoint" x="896" y="320" width="32" height="32">
   <properties>
    <property name="base_reward" type="int" value="55"/>
    <property name="shop_name" value="PetShop"/>
   </properties>
  </object>
  <object id="16" name="pickup_petshop" type="PickupPoint" x="1056" y="320" width="32" height="32">
   <properties>
    <property name="base_reward" type="int" value="50"/>
    <property name="shop_name" value="PetShop"/>
   </properties>
  </object>
  <object id="17" name="pickup_flower" type="PickupPoint" x="1152" y="320" width="32" height="32">
   <properties>
    <property name="base_reward" type="int" value="120"/>
    <property name="shop_name" value="FlowerShop"/>
   </properties>
  </object>
  <object id="18" name="pickup_nursery" type="PickupPoint" x="1312" y="320" width="32" height="32">
   <properties>
    <property name="base_reward" type="int" value="90"/>
    <property name="shop_name" value="Nursery"/>
   </properties>
  </object>
  <object id="19" name="pickup_hospital" type="PickupPoint" x="1184" y="480" width="32" height="32">
   <properties>
    <property name="base_reward" type="int" value="500"/>
    <property name="shop_name" value="Hospital"/>
   </properties>
  </object>
  <object id="20" name="pickup_vetclinic" type="PickupPoint" x="1056" y="480" width="32" height="32">
   <properties>
    <property name="base_reward" type="int" value="60"/>
    <property name="shop_name" value="Vetclinic"/>
   </properties>
  </object>
  <object id="21" name="pickup_gym" type="PickupPoint" x="1088" y="640" width="32" height="32">
   <properties>
    <property name="base_reward" type="int" value="200"/>
    <property name="shop_name" value="Gym"/>
   </properties>
  </object>
  <object id="22" name="pickup_burger" type="PickupPoint" x="992" y="608" width="32" height="32">
   <properties>
    <property name="base_reward" type="int" value="40"/>
    <property name="shop_name" value="Burger"/>
   </properties>
  </object>
  <object id="26" name="pickup_barber" type="PickupPoint" x="1056" y="768" width="32" height="32">
   <properties>
    <property name="base_reward" type="int" value="50"/>
    <property name="shop_name" value="BarberShop"/>
   </properties>
  </object>
  <object id="28" name="pickup_grandmall" type="PickupPoint" x="1024" y="864" width="32" height="32">
   <properties>
    <property name="base_reward" type="int" value="320"/>
    <property name="shop_name" value="GrandMall"/>
   </properties>
  </object>
  <object id="30" name="pickup_icecream" type="PickupPoint" x="800" y="960" width="32" height="32">
   <properties>
    <property name="base_reward" type="int" value="10"/>
    <property name="shop_name" value="IceCream"/>
   </properties>
  </object>
  <object id="31" name="pickup_lighthouse" type="PickupPoint" x="1408" y="928" width="32" height="32">
   <properties>
    <property name="shop_name" value="LightHouse"/>
   </properties>
  </object>
  <object id="32" name="pickup_fish" type="PickupPoint" x="96" y="960" width="32" height="32">
   <properties>
    <property name="base_reward" type="int" value="60"/>
    <property name="shop_name" value="FishShop"/>
   </properties>
  </object>
  <object id="33" name="house_1" type="DeliveryPoint" x="384" y="160" width="32" height="32"/>
  <object id="35" name="house_2" type="DeliveryPoint" x="608" y="160" width="32" height="32"/>
  <object id="36" name="house_3" type="DeliveryPoint" x="736" y="96" width="32" height="32"/>
  <object id="38" name="house_4" type="DeliveryPoint" x="1120" y="160" width="32" height="32"/>
  <object id="39" name="house_5" type="DeliveryPoint" x="1248" y="96" width="32" height="32"/>
  <object id="40" name="house_6" type="DeliveryPoint" x="576" y="320" width="32" height="32"/>
  <object id="41" name="house_7" type="DeliveryPoint" x="640" y="256" width="32" height="32"/>
  <object id="42" name="house_8" type="DeliveryPoint" x="480" y="416" width="32" height="32"/>
  <object id="47" name="house_10" type="DeliveryPoint" x="736" y="576" width="32" height="32"/>
  <object id="48" name="house_11" type="DeliveryPoint" x="608" y="768" width="32" height="32"/>
  <object id="52" name="house_12" type="DeliveryPoint" x="320" y="736" width="32" height="32"/>
  <object id="55" name="house_13" type="DeliveryPoint" x="160" y="768" width="32" height="32"/>
  <object id="56" name="house_14" type="DeliveryPoint" x="224" y="960" width="32" height="32"/>
  <object id="57" name="house_15" x="288" y="960" width="32" height="32"/>
  <object id="58" name="pickup_coffee" type="PickupPoint" x="800" y="480" width="32" height="32">
   <properties>
    <property name="base_reward" type="int" value="25"/>
    <property name="shop_name" value="Coffee"/>
   </properties>
  </object>
  <object id="59" name="house_14" type="DeliveryPoint" x="1184" y="672" width="32" height="32"/>
  <object id="60" name="house_15" type="DeliveryPoint" x="1408" y="640" width="32" height="32"/>
  <object id="61" name="house_16" x="1408" y="736" width="32" height="32"/>
  <object id="62" name="house_17" type="DeliveryPoint" x="896" y="960" width="32" height="32"/>
  <object id="63" name="house_18" x="640" y="960" width="32" height="32"/>
  <object id="64" name="house_19" x="416" y="960" width="32" height="32"/>
  <object id="65" name="house_20" x="320" y="864" width="32" height="32"/>
  <object id="66" x="342" y="1082"/>
  <object id="67" name="house_9" type="DeliveryPoint" x="800" y="672" width="32" height="32"/>
  <object id="69" name="pickup_electron" type="PickupPoint" x="736" y="736" width="32" height="32">
   <properties>
    <property name="base_reward" type="int" value="320"/>
    <property name="shop_name" value="Electron"/>
   </properties>
  </object>
  <object id="71" name="player_spawn" type="Player" x="736" y="512" width="32" height="32"/>
  <object id="72" name="NPC1" type="NPC" x="480" y="736" width="32" height="32"/>
  <object id="73" name="NPC2" type="NPC" x="0" y="32" width="32" height="32"/>
  <object id="74" name="NPC3" type="NPC" x="1472" y="352" width="32" height="32"/>
 </objectgroup>
</map>
